www/assets/icons/usb.svg

<svg width="24" height="24" viewBox="0 0 24 24" xmlns="http://www.w3.org/2000/svg" fill='currentColor'><path d="M15.1 7.3999V11.3999H16.1V13.3999H13.1V5.3999H15.1L12.1 1.3999L9.10002 5.3999H11.1V13.3999H8.10002V11.3299C8.80002 10.9599 9.30002 10.2499 9.30002 9.3999C9.30002 8.1899 8.31002 7.1999 7.10002 7.1999C5.89002 7.1999 4.90002 8.1899 4.90002 9.3999C4.90002 10.2499 5.40002 10.9599 6.10002 11.3299V13.3999C6.10002 14.5099 6.99002 15.3999 8.10002 15.3999H11.1V18.4499C10.39 18.8199 9.90002 19.5499 9.90002 20.3999C9.90002 21.6199 10.89 22.5999 12.1 22.5999C13.31 22.5999 14.3 21.6199 14.3 20.3999C14.3 19.5499 13.81 18.8199 13.1 18.4499V15.3999H16.1C17.21 15.3999 18.1 14.5099 18.1 13.3999V11.3999H19.1V7.3999H15.1Z"/></svg>

<svg xmlns="http://www.w3.org/2000/svg" width="24" height="24" viewBox="0 0 24 24" fill='currentColor'><path d="M15.1 7.4v4h1v2h-3v-8h2l-3-4-3 4h2v8h-3v-2.07c.7-.37 1.2-1.08 1.2-1.93 0-1.21-.99-2.2-2.2-2.2s-2.2.99-2.2 2.2c0 .85.5 1.56 1.2 1.93v2.07c0 1.11.89 2 2 2h3v3.05c-.71.37-1.2 1.1-1.2 1.95a2.2 2.2 0 0 0 4.4 0c0-.85-.49-1.58-1.2-1.95V15.4h3c1.11 0 2-.89 2-2v-2h1v-4z"/></svg>
